X:2445
L:1/8
M:2/4
K:Bb
 BBBA | BG F2 | GDEE | FF B,2 | B>cdB | cd e2 | d>efd | ec B2 |]

